!!!!SEGMENT: pl-wtm--r-1461--035_stefani-jozef--wszechstronne-cwiczenia-glosowe-krakowiak.krn
!!!cenid: 18xx:2211
!!!COM: Stefani, Józef
!!!COM-rismid: pe30024097
!!!CDT: 1800/04/16-1876/03/19
!!!CNT: Polish
!!!GTL: Wszechstronne ćwiczenia głosowe
!!!OTL: Krakowiak
!!!PDT:
!!!AGN: Secular
!!!SMS-siglum: PL-Wtm
!!!SMS-shelfmark: R 1461
!!!SMS-shelfwork: 035 G
!!!SMS-variant:
!!!SMS-altvar:
!!!NIFC-rismid: 1001120710
!!!URL-scan: http://repozytorium.nifc.pl/skany/pl-wtm-nut--r1461
!!!ONB-nifc: UWAGA: skan 0035, s. 66 – 0036, s. 69
**kern	**kern	**dynam	**kern	**dynam
*part3	*part2	*part2	*part1	*part1
*staff3	*staff2	*	*staff1	*
*Iforte	*Iforte	*	*Itenor	*
*I"Fortepian	*I"Fortepian	*	*I"Sopran/Tenor	*
*clefF4	*clefG2	*	*clefG2	*
*k[f#c#g#]	*k[f#c#g#]	*	*k[f#c#g#]	*
*A:	*A:	*	*A:	*
*M2/4	*M2/4	*	*M2/4	*
=1	=1	=1	=1	=1
*2\right	*2\right	*	*	*
!	!	!LO:DY:b:rj	!LO:TX:a:i:t=Allegro moderato	!
!	!	!	!LO:TX:t=P:problem:all\middle or right:global	!
8E 8EE/	8r	p	8e|</	.
8r	8g# 8e 8B/	.	(<4g#^>/	.
8E 8EE/	8r	.	.	.
8r	8g# 8e 8B/	.	8b/)	.
=2	=2	=2	=2	=2
*rep	*	*	*	*
8E 8EE/	8r	.	8a|</	.
8r	8a 8e 8c#/	.	(>4cc#^>\	.
8E 8EE/	8r	.	.	.
8r	8a 8e 8c#/	.	8ee\)	.
*Xrep	*	*	*	*
=3	=3	=3	=3	=3
*rep	*	*	*	*
8E 8EE/	8r	.	(>8.ee\L	.
8r	8g# 8e 8B/	.	.	.
.	.	.	32ff#\LL	.
.	.	.	32ee\JJJ	.
8E 8EE/	8r	.	8dd\L)	.
8r	8g# 8e 8B/	.	(>8b|>\J	.
*Xrep	*	*	*	*
=4	=4	=4	=4	=4
*rep	*	*	*	*
8E 8EE/	8r	.	8cc#/L)	.
8r	8a 8e 8c#/	.	(<8a^</	.
8E 8EE/	8r	.	8g#/)	.
8r	8a 8e 8c#/	.	(<8f#'<^</J	.
*Xrep	*	*	*	*
=5	=5	=5	=5	=5
*rep	*	*	*	*
8E 8EE/	8r	.	8e|</)	.
8r	8g# 8e 8B/	.	(<4g#^>/	.
8E 8EE/	8r	.	.	.
8r	8g# 8e 8B/	.	8b/)	.
*Xrep	*	*	*	*
!!LO:LB:g=original
=6	=6	=6	=6	=6
8E 8EE/	8r	.	8a/	.
8r	8a 8e 8c#/	.	(>4cc#|>^>\	.
8E 8EE/	8r	.	.	.
8r	8a 8e 8c#/	.	8ee\)	.
=7	=7	=7	=7	=7
8E 8EE/	8r	.	(>8.ee\L	.
8r	8g# 8e 8B/	.	.	.
.	.	.	32ff#\LL	.
.	.	.	32ee\JJJ	.
8E 8EE/	8r	.	8dd\L)	.
8r	8g# 8e 8B/	.	(>8b'>\J	.
=8	=8	=8	=8	=8
8A 8AA\	8r	.	4.a/)	.
8r	8a 8e 8c#/	.	.	.
!	!	!LO:DY:b:rj	!	!
8AA 8AAA/	8aa 8ee 8cc# 8a\	f	.	.
!	!	!LO:DY:b	!	!
8r	8r	p	8r	.
=9	=9	=9	=9	=9
8AA 8AAA/	8r	.	8f#|</	.
8r	8f# 8d 8A/	.	(>4a^</	.
8AA 8AAA/	8r	.	.	.
8r	8f# 8d 8A/	.	8dd\)	.
=10	=10	=10	=10	=10
*rep	*	*	*	*
8AA 8AAA/	8r	.	(>16dd#X\LL	.
.	.	.	16ee\	.
8r	8e 8c# 8A/	.	16ff#\	.
.	.	.	16ee\JJ	.
8AA 8AAA/	8r	.	16ddn\LL	.
.	.	.	16cc#\	.
8r	8e 8c# 8A/	.	16b\	.
.	.	.	16a\JJ)	.
*Xrep	*	*	*	*
=11	=11	=11	=11	=11
*rep	*	*	*	*
8AA 8AAA/	8r	.	(<8f#^>/L	.
8r	8f# 8d 8A/	.	16a/Jk)	.
.	.	.	16r	.
8AA 8AAA/	8r	.	(>8dd^>\L	.
8r	8f# 8d 8A/	.	16ff#\Jk)	.
.	.	.	16r	.
*Xrep	*	*	*	*
!!LO:LB:g=original
=12	=12	=12	=12	=12
!	!	!	!	!LO:HP:a
8AA 8AAA/	8r	.	(>8dd#X|>\	<
!	!	!	!	!LO:HP:a
8r	8e 8c# 8A/	.	4ee\)	[ >
8AA 8AAA/	8r	.	.	]
8r	8e 8c# 8A/	.	8ee|>\	.
=13	=13	=13	=13	=13
4E 4EE/	8r	.	8ee\	.
.	8g#L 8e 8B/	.	4b^>\	.
4r	8g# 8e 8B/	.	.	.
.	8g#J 8e 8B/	.	8ee\	.
=14	=14	=14	=14	=14
4AA 4AAA/	8r	.	8ee\	.
.	8aL 8e 8c#/	.	4cc#^>\	.
4r	8a 8e 8c#/	.	.	.
.	8aJ 8e 8c#/	.	8cc#\	.
=15	=15	=15	=15	=15
4C# 4CC#/	8r	.	8cc#\	.
.	8bL 8e#X 8c#/	.	4g#^>/	.
4r	8b 8e# 8c#/	.	.	.
.	8bJ 8e# 8c#/	.	8cc#\	.
=16	=16	=16	=16	=16
4F# 4FF#/	8r	.	8cc#\	.
.	8aL 8f# 8c#/	.	4a^>/	.
4r	8a 8f# 8c#/	.	.	.
.	8aJ 8f# 8c#/	.	8cc#\	.
=17	=17	=17	=17	=17
!	!	!	!	!LO:HP:b
!	!	!LO:DY:b:t=for	!LO:TX:a:t=P:problem:łuk kończy się na kresce taktowej	!
8BB 8BBB/	8r	f	(>8.dd#X\L	>
8r	8a 8f# 8d#X 8B/	.	.	.
.	.	.	16cc#\Jk	.
8BB 8BBB/	8r	.	16b/LL	.
.	.	.	16a/	]
8r	8a 8f# 8d# 8B/	.	16g#/	.
.	.	.	16f#/JJ)	.
!!LO:LB:g=original
=18	=18	=18	=18	=18
8E 8EE/	8r	.	(<16g#/LL	.
.	.	.	16a/	.
!	!	!	!	!LO:HP:b
8r	8g# 8e 8B/	.	16b/	<
.	.	.	16cc#/JJ)	.
8E 8EE/	8r	.	(>16b\LL	.
.	.	.	16cc#\	.
8r	8g# 8e 8B/	.	16dd#X\	.
.	.	.	16ee\JJ)	[
=19	=19	=19	=19	=19
!	!	!	!	!LO:HP:b
8AA 8AAA/	8r	.	(>8gg#\L	>
8r	8a 8f# 8c#/	.	16ff#\Jk)	.
.	.	.	16r	]
!	!	!	!	!LO:HP:b
8BB 8BBB/	8r	.	(>8cc#\L	>
8r	8a 8f# 8B/	.	16dd#X\Jk)	]
.	.	.	16r	.
=20	=20	=20	=20	=20
4E 4EE/	8r	.	(>16ff#\LL	.
.	.	.	16ee\	.
.	8g#L 8e 8B/	.	16dd#X\	.
.	.	.	16ee\JJ	.
4r	8g# 8e 8B/	.	8b\L)	.
.	8g#J 8e 8B/	.	8b'>\J	.
=21	=21	=21	=21	=21
8BB 8BBB/	8r	.	(>8.dd#X\L	.
8r	8a 8f# 8d#X 8B/	.	.	.
!	!	!	!	!LO:HP:b
.	.	.	16cc#\Jk	>
8BB 8BBB/	8r	.	16b/LL	.
.	.	.	16a/	.
8r	8a 8f# 8d# 8B/	.	16g#/	.
.	.	.	16f#/JJ)	]
=22	=22	=22	=22	=22
!	!	!	!LO:TX:a:t=P:problem:niejednoznaczne zakończenie łuku	!
8E 8EE/	8r	.	(>16g#/LL	.
.	.	.	16a/	.
!	!	!	!	!LO:HP:b
8r	8g# 8e 8B/	.	16b/	<
.	.	.	16cc#/JJ	.
8E 8EE/	8r	.	16dd#X\LL	.
.	.	.	16ee\	.
8r	8g# 8e 8B/	.	16ff#\	.
.	.	.	16gg#\JJ	[
!!LO:PB:g=original
=23	=23	=23	=23	=23
!	!	!	!	!LO:HP:b
8AA 8AAA/	8r	.	8gg#\L	>
8r	8a 8f# 8c#/	.	16ff#\Jk)	]
.	.	.	16r	.
!	!	!	!	!LO:HP:b
8BB 8BBB/	8r	.	(>8cc#\L	>
8r	8a 8f# 8B/	.	16dd#X\Jk)	]
.	.	.	16r	.
=24	=24	=24	=24	=24
4E 4EE/	4g# 4e 4B/	.	(>16ee\LL	.
.	.	.	16dd#X\	.
.	.	.	16ee\	.
.	.	.	16ff#\JJ	.
4r	4r	.	16ee\LL	.
.	.	.	16ddn\	.
.	.	.	16b\	.
.	.	.	16g#\JJ)	.
=25	=25	=25	=25	=25
!	!	!LO:DY:b:rj	!	!
8E 8EE/	8r	p	8e|</	.
8r	8g# 8e 8d 8B/	.	(<4g#|<^>/	.
8E 8EE/	8r	.	.	.
8r	8g# 8e 8d 8B/	.	8b/)	.
=26	=26	=26	=26	=26
8E 8EE/	8r	.	8a|</	.
8r	8a 8e 8c#/	.	(>4cc#^>\	.
8E 8EE/	8r	.	.	.
8r	8a 8e 8c#/	.	8ee\)	.
!!LO:LB:g=original
=27	=27	=27	=27	=27
8E 8EE/	8r	.	(>8.ee\L	.
8r	8g# 8e 8d 8B/	.	.	.
.	.	.	32ff#\LL	.
.	.	.	32ee\JJJ)	.
8E 8EE/	8r	.	8dd\L	.
8r	8g# 8e 8d 8B/	.	(>8b'>\J	.
=28	=28	=28	=28	=28
*rep	*	*	*	*
8E 8EE/	8r	.	8cc#/L)	.
8r	8a 8e 8c#/	.	(<8a^</	.
8E 8EE/	8r	.	8g#/)	.
8r	8a 8e 8c#/	.	(<8f#'<^</J	.
*Xrep	*	*	*	*
=29	=29	=29	=29	=29
*rep	*	*	*	*
8E 8EE/	8r	.	8e/)	.
8r	8g# 8e 8d 8B/	.	(<4g#^>/	.
8E 8EE/	8r	.	.	.
8r	8g# 8e 8d 8B/	.	8b/)	.
*Xrep	*	*	*	*
=30	=30	=30	=30	=30
*rep	*	*	*	*
8E 8EE/	8r	.	(<16a/LL	.
.	.	.	16g#/	.
8r	8a 8e 8c#/	.	16a/	.
.	.	.	16b/JJ	.
8E 8EE/	8r	.	8cc#\L)	.
8r	8a 8e 8c#/	.	(>8ee|>\J	.
*Xrep	*	*	*	*
=31	=31	=31	=31	=31
*rep	*	*	*	*
8E 8EE/	8r	.	(>8.ee\L)	.
8r	8g# 8e 8d 8B/	.	.	.
.	.	.	32ff#\LL	.
.	.	.	32ee\JJJ	.
8E 8EE/	8r	.	8dd\L)	.
8r	8g# 8e 8d 8B/	.	8b|>\J	.
*Xrep	*	*	*	*
=32	=32	=32	=32	=32
!	!	!	!	!LO:HP:b
8A 8AA\	8r	.	(>4a/	<
8r	8a 8e 8c#/	.	.	.
!	!	!LO:DY:b:rj	!	!
8AA 8AAA/	8aa 8ee 8cc# 8a\	f	8aa\)	[
8r	8r	.	8r	.
*kcancel	*kcancel	*	*kcancel	*
!!LO:LB:g=original
=33||	=33||	=33||	=33||	=33||
*k[b-]	*k[b-]	*	*k[b-]	*
*F:	*F:	*	*F:	*
!	!	!LO:DY:b:rj	!	!
4F 4FF\	8r	mf	8a|>\	.
.	8fL 8c 8A/	.	(>4cc^>\	.
4r	8f 8c 8A/	.	.	.
.	8fJ 8c 8A/	.	8ff\	.
=34	=34	=34	=34	=34
4C 4CC/	8r	.	8ee\)	.
.	8eL 8c 8B- 8G/	.	(>4b-X^>/	.
4r	8e 8c 8B- 8G/	.	.	.
.	8eJ 8c 8B- 8G/	.	8g/)	.
=35	=35	=35	=35	=35
8F 8FF\	8r	.	(<16g#X/LL	.
!	!	!	!	!LO:HP:b
.	.	.	16a/JJ)	<
8r	8f 8c 8A/	.	(>16bn\LL	.
.	.	.	16cc\JJ)	.
8F 8FF\	8r	.	(>16ee\LL	.
.	.	.	16ff\JJ)	[
!	!	!	!	!LO:HP:b
8r	8f 8c 8A/	.	(>16.aa\LL	>
.	.	.	32ff\JJk)	]]
=36	=36	=36	=36	=36
4C 4CC/	8r	.	8ee\	.
.	8eL 8c 8B- 8G/	.	4b-^>\	.
4r	8e 8c 8B- 8G/	.	.	.
.	8eJ 8c 8B- 8G/	.	8r	.
!!LO:LB:g=original
=37	=37	=37	=37	=37
8F 8FF\	8r	.	8a\	.
8r	8f 8c 8A/	.	(>4cc|>^<\	.
8F 8FF\	8r	.	.	.
8r	8f 8c 8A/	.	8ff\)	.
=38	=38	=38	=38	=38
!	!	!	!	!LO:HP:b
8BB- 8BBB-/	8r	.	(>8.ee\L	>
8r	8g 8d 8B-/	.	.	.
.	.	.	16dd\Jk	.
8BB- 8BBB-/	8r	.	16cc/LL	.
.	.	.	16b-/	]
8r	8g 8d 8B-/	.	16a/	.
.	.	.	16g/JJ)	.
=39	=39	=39	=39	=39
8C 8CC/	8r	.	8d|</	.
8r	8e 8c 8B- 8G/	.	(>4g|<^>/	.
8C 8CC/	8r	.	.	.
8r	8e 8c 8B- 8G/	.	8dd\)	.
=40	=40	=40	=40	=40
8F 8FF\	8r	.	8bn|>\	.
8r	8f 8c 8A/	.	(>4cc^<\	.
8F 8FF\	8r	.	.	.
8r	8f 8c 8A/	.	8a/)	.
=41	=41	=41	=41	=41
8F 8FF\	8r	.	8a/	.
8r	8f 8c 8A/	.	(>4cc^>\	.
8F 8FF\	8r	.	.	.
!	!LO:TX:b:i:t=V&colon; S&colon;	!	!	!
8r	8f 8c 8A/	.	8ff\)	.
!!LO:PB:g=original
=42	=42	=42	=42	=42
!	!	!	!LO:TX:a:t=P:problem:niejednoznaczne zakończenie łuku	!LO:HP:b
8BB- 8BBB-/	8r	.	(>8.aa\L	>
8r	8g 8d 8B-/	.	.	.
.	.	.	16gg\Jk	.
8BBn 8BBBn^>/	8r	.	16ff\LL	.
.	.	.	16ee\	]
8r	8f 8d 8A-X^>/	.	16ff\	.
.	.	.	16dd\JJ	.
=43	=43	=43	=43	=43
8C 8CC/	8r	.	8cc\)	.
8r	8f 8c 8A/	.	(>4ff^>\	.
8C 8CC/	8r	.	.	.
8r	8f 8c 8A/	.	8a/)	.
=44	=44	=44	=44	=44
8C 8CC/	8r	.	(>16dd\LL	.
.	.	.	16cc\	.
8r	8e 8c 8B- 8G/	.	16b-\	.
.	.	.	16g\JJ	.
8F 8FF\	8f 8c 8A/	.	8f/)	.
8r	8r	.	(<8a/	.
=45	=45	=45	=45	=45
(>2F (<2FF^>\	8r	.	16a/LL	.
.	.	.	16g#X/	.
.	(>8aL 8d#X 8A'>/	.	16a/	.
.	.	.	16g#/JJ	.
.	8a 8d# 8A'>/	.	16a/LL	.
.	.	.	16cc/	.
.	8aJ 8d# 8A'>/)	.	16bn/	.
.	.	.	16a/JJ)	.
!!LO:LB:g=original
=46	=46	=46	=46	=46
4E 4EE/))	8r	.	(<16g#X/LL	.
.	.	.	16bn/J)	.
.	(>8g#XL 8e 8Bn'>/	.	8.ee^</J	.
4r	8g# 8e 8B'>/	.	.	.
.	.	.	(<16dd/LL	.
.	8g#J 8e 8B'>/)	.	16cc/	.
.	.	.	16b/JJ	.
=47	=47	=47	=47	=47
(>2F (<2FF^</	8r	.	16a/LL)	.
.	.	.	(<16g#X/	.
.	(>8aL 8d#X 8A'>/	.	16a/	.
.	.	.	16g#/JJ	.
.	8a 8d# 8A'>/	.	16a/LL	.
.	.	.	16cc/	.
.	8aJ 8d# 8A'>/)	.	16bn/	.
.	.	.	16a/JJ)	.
=48	=48	=48	=48	=48
4E 4EE/))	8r	.	(>16g#X\LL	.
.	.	.	16bn\	.
.	(>8g#XL 8e 8Bn'>/	.	16ee\	.
.	.	.	16dd#X\JJ	.
4r	8g# 8e 8B'>/	.	16ee\LL	.
.	.	.	16ddn\	.
.	8g#J 8e 8B'>/)	.	16cc\	.
.	.	.	16bn\JJ)	.
=49	=49	=49	=49	=49
(>2F (<2FF^</	8r	.	(<16a/LL	.
.	.	.	16g#X/	.
.	(>8aL 8d#X 8A'>/	.	16a/	.
.	.	.	16g#/JJ	.
.	8a 8d# 8A'>/	.	16a/LL	.
.	.	.	16cc/	.
.	8aJ 8d# 8A'>/)	.	16bn/	.
.	.	.	16a/JJ)	.
!!LO:LB:g=original
=50	=50	=50	=50	=50
!	!	!	!LO:TX:b:i:t=accelerando	!
8E 8EE/))	8r	.	(>16g#X\LL	.
.	.	.	16bn\J)	.
8r	8g#X 8e 8Bn/	.	8ee^>\J	.
8E 8EE/	8r	.	(>16a\LL	.
.	.	.	16cc\J	.
8r	8a 8e 8c/	.	8ee^>\J)	.
=51	=51	=51	=51	=51
8E 8EE/	8r	.	(>16g#X\LL	.
.	.	.	16bn\	.
8r	8g#X 8e 8Bn/	.	16ff^>\	.
.	.	.	16ee\JJ)	.
8E 8EE/	8r	.	(>16a\LL	.
.	.	.	16cc\	.
8r	8a 8e 8c/	.	16ff^>\	.
.	.	.	16ee\JJ)	.
=52	=52	=52	=52	=52
!	!	!LO:DY:b:rj	!LO:TX:b:i:t=rallentando	!LO:DY:b:rj
2F 2FF\	2a 2d#X 2A/	ff	(>8aa|>\L	ff
!	!	!LO:HP:b	!	!
.	.	>	16gg\L	.
.	.	.	16ff\JJ	.
.	.	.	()>8ff\L	.
.	.	.	16ee\L	.
.	.	]	16dd#X\JJ)	.
=53	=53	=53	=53	=53
.	.	.	(<8qdd#X/	.
!	!	!	!LO:TX:a:t=P:problem:niejednoznaczny zapis łuku	!
2E 2EE/	2g#X 2e 2Bn/	.	(>4.eet>\)	.
.	.	.	16dd#X\LL	.
.	.	.	16ee\JJ)	.
!!LO:LB:g=original
=54	=54	=54	=54	=54
2E 2EE;</	2g#X 2e 2Bn;>/	.	2e;>/	.
=55||	=55||	=55||	=55||	=55||
*k[f#c#g#]	*k[f#c#g#]	*	*k[f#c#g#]	*
*A:	*A:	*	*A:	*
!	!	!LO:DY:b:rj	!LO:TX:a:i:t=a tempo	!
4E 4EE/	8r	p	8e/	.
.	8g#L 8e 8B/	.	(<4g#^>/	.
4r	8g# 8e 8B/	.	.	.
.	8g#J 8e 8B/	.	8b/)	.
=56	=56	=56	=56	=56
4E 4EE/	8r	.	(<16a/LL	.
.	.	.	16g#/	.
.	8aL 8e 8c#/	.	16a/	.
.	.	.	16b/JJ	.
4r	8a 8e 8c#/	.	8cc#\)	.
.	8aJ 8e 8c#/	.	(>8ee\	.
=57	=57	=57	=57	=57
8E 8EE/	8r	.	8.ee\L	.
8r	8g# 8e 8d 8B/	.	.	.
.	.	.	32ff#\LL	.
.	.	.	32ee\JJJ	.
8E 8EE/	8r	.	8dd\L)	.
8r	8g# 8e 8d 8B/	.	(>8b|>\J	.
=58	=58	=58	=58	=58
8E 8EE/	8r	.	8cc#/L)	.
8r	8a 8e 8c#/	.	(>8a^</	.
8E 8EE/	8r	.	8g#/)	.
8r	8a 8e 8c#/	.	(<8f#|<^</J	.
!!LO:PB:g=original
=59	=59	=59	=59	=59
4E 4EE/	8r	.	8e/)	.
.	8g#L 8e 8B/	.	(<4g#^>/	.
4r	8g# 8e 8B/	.	.	.
.	8g#J 8e 8B/	.	8b/)	.
=60	=60	=60	=60	=60
4E 4EE/	8r	.	(<16a/LL	.
.	.	.	16g#/	.
.	8aL 8e 8c#/	.	16a/	.
.	.	.	16b/JJ	.
4r	8a 8e 8c#/	.	8cc#\)	.
.	8aJ 8e 8c#/	.	(>[>8ee|>\	.
=61	=61	=61	=61	=61
8E 8EE/	8r	.	8ee\L]	.
8r	8g# 8e 8d 8B/	.	16gg#\L	.
.	.	.	16ff#\JJ	.
8E 8EE/	8r	.	16ee\LL	.
.	.	.	16dd\	.
8r	8g# 8e 8d 8B/	.	16cc#\	.
.	.	.	16b\JJ)	.
=62	=62	=62	=62	=62
8A 8AA\	8r	.	(>16a\LL	.
.	.	.	16cc#\	.
8r	8a 8e 8c#/	.	16ee\	.
.	.	.	16aa\JJ	.
!	!	!LO:DY:b:rj	!	!
8A 8AA\	8aa 8ee 8cc# 8a\	sf	8a/)	.
8r	8r	.	8r	.
!!LO:LB:g=original
=63	=63	=63	=63	=63
!	!	!	!LO:TX:a:i:t=piu Allegro	!
4F# 4FF#/	8r	.	(<16a/LL	.
.	.	.	16g#/	.
.	8aL 8f# 8c#/	.	16a/	.
.	.	.	16b/JJ	.
4r	8a 8f# 8c#/	.	8cc#/L)	.
.	8aJ 8f# 8c#/	.	8a'</J	.
=64	=64	=64	=64	=64
8D 8DD/	8r	.	(<16f#/LL	.
.	.	.	16b/	.
8r	8b 8f# 8d/	.	16dd/	.
.	.	.	16b/JJ	.
!	!	!LO:DY:b:rj	!LO:TX:t=P:problem:mixed beam	!
8D 8DD/	8ff# 8dd 8b 8f#\	sf	8.ff#\L)	.
8r	8r	.	.	.
.	.	.	16f#/Jk	.
=65	=65	=65	=65	=65
!	!	!	!LO:TX:t=P:problem:łuk kończy się nad nutą	!
4E 4EE/	8r	.	(<16e/LL	.
.	.	.	16f#/	.
.	8g#L 8e 8d 8B/	.	16g#/	.
.	.	.	16a/JJ	.
4r	8g# 8e 8d 8B/	.	8b\L)	.
.	8g#J 8e 8d 8B/	.	8ee'>\J	.
=66	=66	=66	=66	=66
4A 4AA\	8r	.	(>16b#X\LL	.
.	.	.	16cc#\	.
.	8aL 8e 8c#/	.	16dd\	.
.	.	.	16cc#\JJ	.
4r	8a 8e 8c#/	.	8a/)	.
.	8aJ 8e 8c#/	.	8r	.
=67	=67	=67	=67	=67
4F# 4FF#/	8r	.	(<16a/LL	.
.	.	.	16g#/	.
.	8aL 8f# 8c#/	.	16a/	.
.	.	.	16b/JJ	.
4r	8a 8f# 8c#/	.	16cc#/LL	.
.	.	.	16b#X/	.
.	8aJ 8f# 8c#/	.	16cc#/	.
.	.	.	16a/JJ)	.
!!LO:LB:g=original
=68	=68	=68	=68	=68
!	!	!	!LO:TX:t=P:problem:łuk kończy się nad nutami	!
8D 8DD/	8r	.	(<16f#/LL	.
.	.	.	16b/	.
8r	8b 8f# 8d/	.	16dd/	.
.	.	.	16b/JJ	.
!	!	!LO:DY:b:rj	!	!
8D 8DD/	8ff# 8dd 8b 8f#\	sf	16ff#\LL	.
.	.	.	16dd\	.
8r	8r	.	16b\	.
.	.	.	16a\JJ)	.
=69	=69	=69	=69	=69
!	!	!	!LO:TX:t=P:problem:łuk kończy się nad nutami	!
4E 4EE/	8r	.	(<16g#/LL	.
!	!	!	!	!LO:HP:b
.	.	.	16a/	<
.	8g#L 8e 8d 8B/	.	16b/	.
.	.	.	16cc#/JJ	.
4r	8g# 8e 8d 8B/	.	16dd\LL	.
.	.	.	16ee\	.
.	8g#J 8e 8d 8B/	.	16ff#\	.
.	.	.	16gg#\JJ	[
=70	=70	=70	=70	=70
!	!	!LO:DY:b:rj	!	!
8A 8AA\	8a 8e 8c#/	f	8aa\L)	.
8r	8r	.	(>16ff#\L	.
.	.	.	16ee\JJ)	.
8E 8EE/	8g# 8e 8B/	.	8ee'>\L	.
8r	8r	.	(>16ff#\L	.
.	.	.	16ee\JJ)	.
=71	=71	=71	=71	=71
8A 8AA\	8a 8e 8c#/	.	8ee'>\L	.
8r	8r	.	(>16ff#\L	.
.	.	.	16ee\JJ	.
8E 8EE/	8g# 8e 8B/	.	16dd#X\LL	.
.	.	.	16ee\	.
8r	8r	.	16ddn\	.
.	.	.	16b\JJ)	.
!!LO:LB:g=original
=72	=72	=72	=72	=72
8A 8AA\	8a 8e 8c#/	.	8cc#|>\L	.
8r	8r	.	(>16ff#\L	.
.	.	.	16ee\JJ)	.
8E 8EE/	8g# 8e 8B/	.	8ee|>\L	.
8r	8r	.	(>16ff#\L	.
.	.	.	16ee\JJ)	.
=73	=73	=73	=73	=73
8A 8AA\	8a 8e 8c#/	.	8ee|>\L	.
8r	8r	.	(>16ff#\L	.
.	.	.	16ee\JJ	.
!	!	!	!	!LO:HP:b
.	.	.	.	<
8E 8EE/	8g# 8e 8B/	.	16dd#X\LL	.
.	.	.	16ee\	.
8r	8r	.	16ff#\	.
.	.	.	16gg#\JJ	[[
=74	=74	=74	=74	=74
8A 8AA\	8a 8e 8c#/	.	16aa\LL)	.
.	.	.	(>16ee\	.
!	!	!	!	!LO:HP:b
8r	8r	.	16dd#X\	<
.	.	.	16ee\JJ	.
8E 8EE/	8gg# 8ee 8dd 8b\	.	16ee#X\LL	.
.	.	.	16ff#\	.
8r	8r	.	16ff##X\	.
.	.	.	16gg#\JJ	[
=75	=75	=75	=75	=75
8A 8AA\	8aa 8ee 8cc# 8a\	.	16aa\LL)	.
!	!	!	!	!LO:HP:b
.	.	.	(>16ee\	<
8r	8r	.	16dd#X\	.
.	.	.	16ee\JJ	.
8E 8EE/	8gg# 8ee 8dd 8b\	.	16ee#X\LL	.
.	.	.	16ff#\	.
8r	8r	.	16ff##X\	.
.	.	.	16gg#\JJ	[[
=76	=76	=76	=76	=76
4A 4AA\	4aa 4ee 4cc# 4a\	.	4aa\)	.
4r	4r	.	4r	.
=77	=77	=77	=77	=77
4A 4E 4AA\	4ccc# 4aa 4ee 4cc#\	.	2r	.
8.r	8.r	.	.	.
16A 16E 16AA\	16a 16e 16c#/	.	.	.
=78	=78	=78	=78	=78
2A 2E 2AA;>\	2a 2e 2c#;>/	.	2r;>	.
==	==	==	==	==
*-	*-	*-	*-	*-
!!!system-decoration: s1{(s2,s3)}
!!!RDF**kern: | = vertical stroke
!!!RDF**kern: > = above
!!!RDF**kern: < = below
!!!EED: Antoni Szymański
!!!EST: 2021-06-05
!!!AIN: 2 forte 1 tenor
!!!ENC: Mateusz Solarz
!!!END: 2021-05-19
